z_dist/img/photos/bg/assets-main.svg

<svg width="1440" height="642" fill="none" xmlns="http://www.w3.org/2000/svg"><g clip-path="url(#clip0_1537_70799)"><path d="M1440 0H0v642h1440V0z" fill="#111"/><path d="M1129.6 379.8c12.1 11.6 18 31.7 13.1 47.8-4.9 16.1-20.5 28.3-35.7 32.1-15.2 3.8-30-.9-47.5-6.8-17.5-5.8-37.7-12.8-42-25.2-4.3-12.5 7.2-30.4 20.5-42.2 13.2-11.9 28.1-17.6 44.7-19 16.6-1.3 34.9 1.7 46.9 13.3zm128-192.3c11 11.7 16.2 30.2 12.3 46.1-4 15.9-17.1 29.3-32.1 35-14.9 5.6-31.7 3.5-42.7-4.2-11-7.7-16.3-21.1-17.8-33.6-1.6-12.6.6-24.3 7.2-35.1 6.5-10.7 17.5-20.5 31.4-22.8 13.9-2.3 30.7 2.8 41.7 14.6zM460.8 289.4c9.3 15.1 13.7 30.7 10.5 44.4-3.3 13.7-14.3 25.3-27.2 30.7-13 5.4-27.9 4.5-44.2-.6-16.3-5.2-33.9-14.5-38.9-28.9-4.9-14.3 2.8-33.7 15.2-49.6 12.5-15.9 29.6-28.3 45.3-27.1 15.7 1.1 30 15.9 39.3 31.1zM429.6 91.8c9.1 12.2 14 26.9 10.4 38.6-3.5 11.7-15.5 20.4-28.6 26.8-13.1 6.3-27.4 10.3-40.5 6.2-13-4.2-24.8-16.5-26.9-29.8-2-13.2 5.7-27.5 15.6-39.9 10-12.4 22.2-22.9 34.9-23.4 12.8-.4 26 9.3 35.1 21.5zm695.49-22.36c9.2 10.1 18.5 21.4 18.5 34.3 0 12.8-9.2 27.3-20.8 30.3-11.6 3.1-25.5-5.3-40.2-12.3-14.7-7-30.3-12.5-33.8-22.4-3.5-9.9 5.1-24 15.3-34.4 10.3-10.4 22.2-17 32.6-15.8 10.4 1.2 19.3 10.2 28.4 20.3zm134.59 466.277c10.3 13.8 18.8 28.1 16.8 41.5-1.9 13.3-14.3 25.7-28 30.4-13.7 4.7-28.7 1.8-42.9-4.4s-27.6-15.7-32.5-29.4c-4.8-13.6-1.1-31.4 9-45.1 10.1-13.7 26.6-23.3 40.9-21.5 14.3 1.7 26.4 14.8 36.7 28.5zM656.8 179.4c9.2 10.6 9.3 29.4 3.4 43.4-5.9 14.1-17.8 23.4-30.3 28.1-12.5 4.7-25.5 4.9-36.5-.1-10.9-5-19.6-15.2-22.3-26.7-2.7-11.6.7-24.6 8.4-34.9 7.6-10.3 19.6-18 34.7-20.5 15.1-2.5 33.4 0 42.6 10.7zM213.516 414.626c10.2 9.2 12.8 28.2 7.3 42.7-5.5 14.4-19.1 24.3-34 31.5-14.8 7.3-31.1 11.9-42 6.3-10.8-5.5-16.4-21.4-17.6-35.6-1.1-14.2 2-26.9 9.4-35.4s19-12.9 33.8-15.5c14.8-2.5 32.8-3.2 43.1 6zm1158.244 3.011c-12.96 4.572-30.89-2.213-41.01-13.967-10.03-11.706-12.24-28.382-11.45-44.912.65-16.49 4.39-33.009 14.51-39.914 9.99-6.865 26.63-4.196 39.68 1.527 13.01 5.811 22.69 14.597 26.63 25.157 3.93 10.56 2.26 22.853-2.52 37.1-4.87 14.198-12.84 30.349-25.84 35.009zM942.158 118.128c7.6 11.5 5.1 29 1.3 46.2-3.9 17.3-9.1 34.4-21.3 42.3-12.3 7.9-31.4 6.7-45.7-1.4-14.2-8.1-23.5-23.2-24.4-37.2-.8-14.1 6.8-27.1 16.1-39 9.3-11.9 20.3-22.7 34.6-25.4 14.3-2.6 31.9 3 39.4 14.5zM535.2 471.8c9.8 11.4 16.6 26 14.1 39.1-2.5 13-14.3 24.5-28.2 30.7-13.8 6.1-29.6 6.9-45.6 1.7-16.1-5.2-32.4-16.4-37.2-31.8-4.8-15.4 2-35.1 14.2-47.1s29.9-16.4 45-14.4c15.2 2 27.9 10.3 37.7 21.8zM162.283 184.436c8.636 13.494 7.197 32.206 1.439 46.959-5.757 14.754-15.923 25.459-27.978 30.857-12.145 5.488-26.269 5.577-38.773.27-12.505-5.308-23.3-15.923-25.55-27.888-2.158-11.965 4.23-25.189 13.225-38.773 8.906-13.585 20.421-27.439 35.445-30.317 15.113-2.789 33.645 5.397 42.192 18.892zM976 523.8c8.2 10.9 10 26.1 7.5 41.6s-9.5 31.1-22.2 38.8c-12.8 7.7-31.3 7.3-43.3-.7-11.9-8.1-17.3-23.8-17.7-37.3-.4-13.4 4.3-24.7 11.6-35.4s17.2-20.9 29.4-22.7c12.1-1.9 26.6 4.8 34.7 15.7zm-253.9-28.2c7.7 12.2 8.8 27.1 5.9 41.4-2.9 14.4-9.9 28.2-20.8 33.2-10.9 5-25.8 1-39.5-5.5-13.8-6.5-26.5-15.5-31.8-29.1-5.3-13.5-3.3-31.5 6.3-44.2 9.6-12.6 26.7-19.9 42.4-18.7 15.6 1.1 29.8 10.7 37.5 22.9zm86.8-176.1c10.4 12.3 12.5 32 6.3 46.1-6.2 14.1-20.6 22.6-34.6 27.6s-27.5 6.6-38.8 1.9c-11.4-4.8-20.7-15.8-26.1-30.4-5.4-14.6-7-32.6 1.2-44.5 8.1-11.8 26.1-17.5 44.5-17.8 18.4-.3 37.1 4.7 47.5 17.1zm496.96-217.982c-9.02-9.2-17.31-21.133-15.39-31.244 1.91-10.111 13.93-18.492 25.59-22.044 11.75-3.644 23.23-2.46 33.34 2.095 10.11 4.646 18.95 12.661 22.59 23.41 3.65 10.749 2.19 24.23-4.92 32.975-7.19 8.745-19.94 12.753-31.15 11.568-11.29-1.184-21.04-7.651-30.06-16.76z" stroke="#5D5D5D" stroke-width="3"/></g><defs><clipPath id="clip0_1537_70799"><path fill="#fff" d="M0 0h1440v642H0z"/></clipPath></defs></svg>

<svg width="1440" height="642" viewBox="0 0 1440 642" fill="none" xmlns="http://www.w3.org/2000/svg">
<g clip-path="url(#clip0_1537_70799)">
<path d="M1440 0H0V642H1440V0Z" fill="#111111"/>
<path d="M1129.6 379.8C1141.7 391.4 1147.6 411.5 1142.7 427.6C1137.8 443.7 1122.2 455.9 1107 459.7C1091.8 463.5 1077 458.8 1059.5 452.9C1042 447.1 1021.8 440.1 1017.5 427.7C1013.2 415.2 1024.7 397.3 1038 385.5C1051.2 373.6 1066.1 367.9 1082.7 366.5C1099.3 365.2 1117.6 368.2 1129.6 379.8Z" stroke="#5D5D5D" stroke-width="3"/>
<path d="M1257.6 187.5C1268.6 199.2 1273.8 217.7 1269.9 233.6C1265.9 249.5 1252.8 262.9 1237.8 268.6C1222.9 274.2 1206.1 272.1 1195.1 264.4C1184.1 256.7 1178.8 243.3 1177.3 230.8C1175.7 218.2 1177.9 206.5 1184.5 195.7C1191 185 1202 175.2 1215.9 172.9C1229.8 170.6 1246.6 175.7 1257.6 187.5Z" stroke="#5D5D5D" stroke-width="3"/>
<path d="M460.8 289.4C470.1 304.5 474.5 320.1 471.3 333.8C468 347.5 457 359.1 444.1 364.5C431.1 369.9 416.2 369 399.9 363.9C383.6 358.7 366 349.4 361 335C356.1 320.7 363.8 301.3 376.2 285.4C388.7 269.5 405.8 257.1 421.5 258.3C437.2 259.4 451.5 274.2 460.8 289.4Z" stroke="#5D5D5D" stroke-width="3"/>
<path d="M429.6 91.8C438.7 104 443.6 118.7 440 130.4C436.5 142.1 424.5 150.8 411.4 157.2C398.3 163.5 384 167.5 370.9 163.4C357.9 159.2 346.1 146.9 344 133.6C342 120.4 349.7 106.1 359.6 93.7C369.6 81.3 381.8 70.8 394.5 70.3C407.3 69.9 420.5 79.6 429.6 91.8Z" stroke="#5D5D5D" stroke-width="3"/>
<path d="M1125.09 69.4403C1134.29 79.5403 1143.59 90.8403 1143.59 103.74C1143.59 116.54 1134.39 131.04 1122.79 134.04C1111.19 137.14 1097.29 128.74 1082.59 121.74C1067.89 114.74 1052.29 109.24 1048.79 99.3403C1045.29 89.4403 1053.89 75.3403 1064.09 64.9403C1074.39 54.5403 1086.29 47.9403 1096.69 49.1403C1107.09 50.3403 1115.99 59.3403 1125.09 69.4403Z" stroke="#5D5D5D" stroke-width="3"/>
<path d="M1259.68 535.717C1269.98 549.517 1278.48 563.817 1276.48 577.217C1274.58 590.517 1262.18 602.917 1248.48 607.617C1234.78 612.317 1219.78 609.417 1205.58 603.217C1191.38 597.017 1177.98 587.517 1173.08 573.817C1168.28 560.217 1171.98 542.417 1182.08 528.717C1192.18 515.017 1208.68 505.417 1222.98 507.217C1237.28 508.917 1249.38 522.017 1259.68 535.717Z" stroke="#5D5D5D" stroke-width="3"/>
<path d="M656.8 179.4C666 190 666.1 208.8 660.2 222.8C654.3 236.9 642.4 246.2 629.9 250.9C617.4 255.6 604.4 255.8 593.4 250.8C582.5 245.8 573.8 235.6 571.1 224.1C568.4 212.5 571.8 199.5 579.5 189.2C587.1 178.9 599.1 171.2 614.2 168.7C629.3 166.2 647.6 168.7 656.8 179.4Z" stroke="#5D5D5D" stroke-width="3"/>
<path d="M213.516 414.626C223.716 423.826 226.316 442.826 220.816 457.326C215.316 471.726 201.716 481.626 186.816 488.826C172.016 496.126 155.716 500.726 144.816 495.126C134.016 489.626 128.416 473.726 127.216 459.526C126.116 445.326 129.216 432.626 136.616 424.126C144.016 415.626 155.616 411.226 170.416 408.626C185.216 406.126 203.216 405.426 213.516 414.626Z" stroke="#5D5D5D" stroke-width="3"/>
<path d="M1371.76 417.637C1358.8 422.209 1340.87 415.424 1330.75 403.67C1320.72 391.964 1318.51 375.288 1319.3 358.758C1319.95 342.268 1323.69 325.749 1333.81 318.844C1343.8 311.979 1360.44 314.648 1373.49 320.371C1386.5 326.182 1396.18 334.968 1400.12 345.528C1404.05 356.088 1402.38 368.381 1397.6 382.628C1392.73 396.826 1384.76 412.977 1371.76 417.637Z" stroke="#5D5D5D" stroke-width="3"/>
<path d="M942.158 118.128C949.758 129.628 947.258 147.128 943.458 164.328C939.558 181.628 934.358 198.728 922.158 206.628C909.858 214.528 890.758 213.328 876.458 205.228C862.258 197.128 852.958 182.028 852.058 168.028C851.258 153.928 858.858 140.928 868.158 129.028C877.458 117.128 888.458 106.328 902.758 103.628C917.058 101.028 934.658 106.628 942.158 118.128Z" stroke="#5D5D5D" stroke-width="3"/>
<path d="M535.2 471.8C545 483.2 551.8 497.8 549.3 510.9C546.8 523.9 535 535.4 521.1 541.6C507.3 547.7 491.5 548.5 475.5 543.3C459.4 538.1 443.1 526.9 438.3 511.5C433.5 496.1 440.3 476.4 452.5 464.4C464.7 452.4 482.4 448 497.5 450C512.7 452 525.4 460.3 535.2 471.8Z" stroke="#5D5D5D" stroke-width="3"/>
<path d="M162.283 184.436C170.919 197.93 169.48 216.642 163.722 231.395C157.965 246.149 147.799 256.854 135.744 262.252C123.599 267.74 109.475 267.829 96.9709 262.522C84.4663 257.214 73.6709 246.599 71.4219 234.634C69.2629 222.669 75.6501 209.445 84.6462 195.861C93.5524 182.276 105.067 168.422 120.091 165.544C135.204 162.755 153.736 170.941 162.283 184.436Z" stroke="#5D5D5D" stroke-width="3"/>
<path d="M976 523.8C984.2 534.7 986 549.9 983.5 565.4C981 580.9 974 596.5 961.3 604.2C948.5 611.9 930 611.5 918 603.5C906.1 595.4 900.7 579.7 900.3 566.2C899.9 552.8 904.6 541.5 911.9 530.8C919.2 520.1 929.1 509.9 941.3 508.1C953.4 506.2 967.9 512.9 976 523.8Z" stroke="#5D5D5D" stroke-width="3"/>
<path d="M722.1 495.6C729.8 507.8 730.9 522.7 728 537C725.1 551.4 718.1 565.2 707.2 570.2C696.3 575.2 681.4 571.2 667.7 564.7C653.9 558.2 641.2 549.2 635.9 535.6C630.6 522.1 632.6 504.1 642.2 491.4C651.8 478.8 668.9 471.5 684.6 472.7C700.2 473.8 714.4 483.4 722.1 495.6Z" stroke="#5D5D5D" stroke-width="3"/>
<path d="M808.9 319.5C819.3 331.8 821.4 351.5 815.2 365.6C809 379.7 794.6 388.2 780.6 393.2C766.6 398.2 753.1 399.8 741.8 395.1C730.4 390.3 721.1 379.3 715.7 364.7C710.3 350.1 708.7 332.1 716.9 320.2C725 308.4 743 302.7 761.4 302.4C779.8 302.1 798.5 307.1 808.9 319.5Z" stroke="#5D5D5D" stroke-width="3"/>
<path d="M1305.86 101.518C1296.84 92.3176 1288.55 80.3848 1290.47 70.2737C1292.38 60.1627 1304.4 51.7824 1316.06 48.2299C1327.81 44.5863 1339.29 45.7704 1349.4 50.325C1359.51 54.9706 1368.35 62.9865 1371.99 73.7352C1375.64 84.4838 1374.18 97.9652 1367.07 106.71C1359.88 115.455 1347.13 119.463 1335.92 118.278C1324.63 117.094 1314.88 110.627 1305.86 101.518Z" stroke="#5D5D5D" stroke-width="3"/>
</g>
<defs>
<clipPath id="clip0_1537_70799">
<rect width="1440" height="642" fill="white"/>
</clipPath>
</defs>
</svg>
